packages/astro-components-stencil/src/icons/directions-transit.svg

<svg xmlns="http://www.w3.org/2000/svg" viewBox="0 0 24 24"><g xmlns="http://www.w3.org/2000/svg" id="directions-transit" fill-rule="nonzero">
            <path d="M12 2c-4.42 0-8 .5-8 4v9.5C4 17.43 5.57 19 7.5 19l-1.15 1.15a.5.5 0 00.36.85H17.3c.45 0 .67-.54.35-.85L16.5 19c1.93 0 3.5-1.57 3.5-3.5V6c0-3.5-3.58-4-8-4zM7.5 17c-.83 0-1.5-.67-1.5-1.5S6.67 14 7.5 14s1.5.67 1.5 1.5S8.33 17 7.5 17zm3.5-6H6V6h5v5zm5.5 6c-.83 0-1.5-.67-1.5-1.5s.67-1.5 1.5-1.5 1.5.67 1.5 1.5-.67 1.5-1.5 1.5zm1.5-6h-5V6h5v5z"/>
        </g></svg>

<svg width="24" height="24" viewBox="0 0 24 24" fill="none" xmlns="http://www.w3.org/2000/svg">
<path fill-rule="evenodd" clip-rule="evenodd" d="M12 2C7.58 2 4 2.5 4 6V15.5C4 17.43 5.57 19 7.5 19L6.35 20.15C6.04 20.46 6.26 21 6.71 21H17.3C17.75 21 17.97 20.46 17.65 20.15L16.5 19C18.43 19 20 17.43 20 15.5V6C20 2.5 16.42 2 12 2ZM7.5 17C6.67 17 6 16.33 6 15.5C6 14.67 6.67 14 7.5 14C8.33 14 9 14.67 9 15.5C9 16.33 8.33 17 7.5 17ZM6 11H11V6H6V11ZM16.5 17C15.67 17 15 16.33 15 15.5C15 14.67 15.67 14 16.5 14C17.33 14 18 14.67 18 15.5C18 16.33 17.33 17 16.5 17ZM13 11H18V6H13V11Z" fill="black"/>
</svg>
